eacl_2014/include/duc_refs_term_suite_1_2_3_grams.svg

<?xml version="1.0" encoding="UTF-8" standalone="no"?>
<svg
   xmlns:dc="http://purl.org/dc/elements/1.1/"
   xmlns:cc="http://creativecommons.org/ns#"
   xmlns:rdf="http://www.w3.org/1999/02/22-rdf-syntax-ns#"
   xmlns:svg="http://www.w3.org/2000/svg"
   xmlns="http://www.w3.org/2000/svg"
   xmlns:xlink="http://www.w3.org/1999/xlink"
   xmlns:sodipodi="http://sodipodi.sourceforge.net/DTD/sodipodi-0.dtd"
   xmlns:inkscape="http://www.inkscape.org/namespaces/inkscape"
   style="fill-opacity:1; color-rendering:auto; color-interpolation:auto; stroke:black; text-rendering:auto; stroke-linecap:square; stroke-miterlimit:10; stroke-opacity:1; shape-rendering:auto; fill:black; stroke-dasharray:none; font-weight:normal; stroke-width:1; font-family:'Dialog'; font-style:normal; stroke-linejoin:miter; font-size:12; stroke-dashoffset:0; image-rendering:auto;"
   id="svg2"
   version="1.1"
   inkscape:version="0.48.3.1 r9886"
   width="100%"
   height="100%"
   sodipodi:docname="duc_refs_term_suite_1_2_3_grams.svg">
  <metadata
     id="metadata33">
    <rdf:RDF>
      <cc:Work
         rdf:about="">
        <dc:format>image/svg+xml</dc:format>
        <dc:type
           rdf:resource="http://purl.org/dc/dcmitype/StillImage" />
        <dc:title />
      </cc:Work>
    </rdf:RDF>
  </metadata>
  <sodipodi:namedview
     pagecolor="#ffffff"
     bordercolor="#666666"
     borderopacity="1"
     objecttolerance="10"
     gridtolerance="10"
     guidetolerance="10"
     inkscape:pageopacity="0"
     inkscape:pageshadow="2"
     inkscape:window-width="1855"
     inkscape:window-height="1056"
     id="namedview31"
     showgrid="false"
     inkscape:zoom="1.2685914"
     inkscape:cx="162.62123"
     inkscape:cy="712.72721"
     inkscape:window-x="65"
     inkscape:window-y="24"
     inkscape:window-maximized="1"
     inkscape:current-layer="svg2" />
  <!--Generated by the Batik Graphics2D SVG Generator-->
  <g
     id="g15"
     style="fill:#e9826c;fill-opacity:0.50199998;stroke:#e9826c;stroke-opacity:0.50199998">
    <path
       inkscape:connector-curvature="0"
       id="path19"
       style="fill:#000000;fill-opacity:1;stroke:#000000;stroke-opacity:1"
       d="m 580.5839,181.2014 c -1.5252,0 -2.9096,0.3369 -4.1225,1.0372 -9.7288,5.6169 -4.7337,32.4823 11.1569,60.0057 13.9095,24.0919 31.5566,40.7022 42.2654,40.7022 1.5252,0 2.9097,-0.3369 4.1225,-1.0372 9.7288,-5.6169 4.7337,-32.4823 -11.157,-60.0056 -13.9094,-24.092 -31.5565,-40.7023 -42.2653,-40.7023 z" />
  </g>
  <defs
     id="genericDefs">
    <defs
       id="defs1">
      <pattern
         patternUnits="userSpaceOnUse"
         y="0.5"
         height="11"
         id="pattern1"
         x="0"
         width="11.5">
        <image
           id="image9"
           xlink:href="data:image/png;base64,iVBORw0KGgoAAAANSUhEUgAAAAsAAAALCAYAAACprHcmAAAAUElEQVR42mP8DwQM RADGKY0MTMQq/J9TT5xiGGAhZCIIgEzFqxhmNV6TTwBxamMJg8XPf4SdYQmyWpgX w1QMxdisxlCM7hFcgLSgI2Q1MgAAVdYe34Vnaa0AAAAASUVORK5CYII="
           height="11"
           y="0"
           width="11"
           x="0"
           preserveAspectRatio="none" />
      </pattern>
    </defs>
  </defs>
  <g
     id="g11"
     style="fill:#ffffff;stroke:#ffffff" />
  <g
     id="g21"
     style="fill:url(#pattern1);stroke:url(#pattern1)" />
  <path
     style="fill:#000000;fill-opacity:0.50196078000000000;stroke:#ffffff;stroke-opacity:1;stroke-width:2;stroke-miterlimit:10;stroke-dasharray:none"
     d="m 507.1071,197.5322 c -22.9189,0 -45.699,5.6721 -66.4228,17.6369 -68.7651,39.7016 -88.8484,133.6542 -44.8573,209.849 30.7335,53.2321 84.61,83.7139 137.7404,83.7139 22.919,0 45.6991,-5.6721 66.4228,-17.637 68.7652,-39.7015 88.8485,-133.6541 44.8574,-209.849 -30.7335,-53.232 -84.6101,-83.7138 -137.7405,-83.7138 z"
     id="path27"
     inkscape:connector-curvature="0" />
  <path
     d="m 343.5407,31.0499 c -46.5193,0 -93.67,11.1019 -137.52,34.5114 C 62.9435,141.9436 9.1875,320.4331 85.9534,464.2288 c 53.2388,99.7255 155.2734,156.5739 260.5411,156.5739 46.5193,0 93.67,-11.1018 137.52,-34.5113 C 627.0917,509.9091 680.8477,331.4196 604.0818,187.6239 550.843,87.8984 448.8084,31.0499 343.5407,31.0499 z"
     style="fill:none;fill-opacity:0.25098039000000000;stroke:#000000;stroke-width:1;stroke-miterlimit:10;stroke-opacity:1;stroke-dasharray:none"
     id="path29"
     inkscape:connector-curvature="0" />
  <path
     d="m 323.8338,187.12853 c -46.5193,0 -54.2562,-10.96983 -98.1062,12.43967 -143.077202,76.3823 -73.86216,68.05041 2.90374,211.84611 53.2388,99.7255 -48.89006,132.13735 56.37764,132.13735 46.5193,0 -43.24407,-38.14137 4.30137,-52.64164 7.04075,-2.14727 269.26536,43.31433 294.61293,7.9469 59.4025,-82.88426 73.34689,-194.07777 29.41279,-292.34046 -2.84152,-6.35533 -63.4693,-93.06071 -141.68462,-48.84704 -98.41152,55.63019 -42.54995,29.45911 -147.81765,29.45911 z"
     style="font-size:12px;font-style:normal;font-weight:normal;fill:none;stroke:#ffffff;stroke-width:2;stroke-linecap:square;stroke-linejoin:miter;stroke-miterlimit:10;stroke-opacity:1;stroke-dasharray:none;stroke-dashoffset:0;font-family:Dialog"
     id="path29-8"
     inkscape:connector-curvature="0"
     sodipodi:nodetypes="sssssssss" />
</svg>

<?xml version="1.0" encoding="UTF-8" standalone="no"?>
<svg
   xmlns:dc="http://purl.org/dc/elements/1.1/"
   xmlns:cc="http://creativecommons.org/ns#"
   xmlns:rdf="http://www.w3.org/1999/02/22-rdf-syntax-ns#"
   xmlns:svg="http://www.w3.org/2000/svg"
   xmlns="http://www.w3.org/2000/svg"
   xmlns:xlink="http://www.w3.org/1999/xlink"
   xmlns:sodipodi="http://sodipodi.sourceforge.net/DTD/sodipodi-0.dtd"
   xmlns:inkscape="http://www.inkscape.org/namespaces/inkscape"
   style="fill-opacity:1; color-rendering:auto; color-interpolation:auto; stroke:black; text-rendering:auto; stroke-linecap:square; stroke-miterlimit:10; stroke-opacity:1; shape-rendering:auto; fill:black; stroke-dasharray:none; font-weight:normal; stroke-width:1; font-family:'Dialog'; font-style:normal; stroke-linejoin:miter; font-size:12; stroke-dashoffset:0; image-rendering:auto;"
   id="svg2"
   version="1.1"
   inkscape:version="0.48.3.1 r9886"
   width="100%"
   height="100%"
   sodipodi:docname="duc_refs_term_suite_1_2_3_grams.svg">
  <metadata
     id="metadata33">
    <rdf:RDF>
      <cc:Work
         rdf:about="">
        <dc:format>image/svg+xml</dc:format>
        <dc:type
           rdf:resource="http://purl.org/dc/dcmitype/StillImage" />
        <dc:title />
      </cc:Work>
    </rdf:RDF>
  </metadata>
  <sodipodi:namedview
     pagecolor="#ffffff"
     bordercolor="#666666"
     borderopacity="1"
     objecttolerance="10"
     gridtolerance="10"
     guidetolerance="10"
     inkscape:pageopacity="0"
     inkscape:pageshadow="2"
     inkscape:window-width="1855"
     inkscape:window-height="1056"
     id="namedview31"
     showgrid="false"
     inkscape:zoom="0.89702957"
     inkscape:cx="137.09327"
     inkscape:cy="697.6401"
     inkscape:window-x="65"
     inkscape:window-y="24"
     inkscape:window-maximized="1"
     inkscape:current-layer="svg2" />
  <!--Generated by the Batik Graphics2D SVG Generator-->
  <defs
     id="genericDefs" />
  <g
     id="g5">
    <defs
       id="defs1">
      <pattern
         width="11.5"
         x="0"
         id="pattern1"
         height="11"
         y="0.5"
         patternUnits="userSpaceOnUse">
        <image
           preserveAspectRatio="none"
           x="0"
           width="11"
           y="0"
           height="11"
           xlink:href="data:image/png;base64,iVBORw0KGgoAAAANSUhEUgAAAAsAAAALCAYAAACprHcmAAAAUElEQVR42mP8DwQM RADGKY0MTMQq/J9TT5xiGGAhZCIIgEzFqxhmNV6TTwBxamMJg8XPf4SdYQmyWpgX w1QMxdisxlCM7hFcgLSgI2Q1MgAAVdYe34Vnaa0AAAAASUVORK5CYII="
           id="image9" />
      </pattern>
    </defs>
    <g
       style="fill:white; text-rendering:optimizeLegibility; stroke:white;"
       id="g11" />
    <g
       style="fill:rgb(233,130,108); text-rendering:optimizeLegibility; fill-opacity:0.502; stroke-opacity:0.502; stroke:rgb(233,130,108);"
       id="g15">
      <path
         d="M580.5839 181.2014 C579.0587 181.2014 577.6743 181.5383 576.4614 182.2386 C566.7326 187.8555 571.7277 214.7209 587.6183 242.2443 C601.5278 266.3362 619.1749 282.9465 629.8837 282.9465 C631.4089 282.9465 632.7934 282.6096 634.0062 281.9093 C643.735 276.2924 638.7399 249.427 622.8492 221.9037 C608.9398 197.8117 591.2927 181.2014 580.5839 181.2014 Z"
         style="fill:none;stroke:#000000;fill-opacity:1;stroke-opacity:1"
         id="path19" />
    </g>
    <g
       style="fill:url(#pattern1); text-rendering:optimizeLegibility; stroke:url(#pattern1);"
       id="g21" />
    <g
       style="fill:rgb(0,147,128); text-rendering:optimizeLegibility; fill-opacity:0.502; stroke-opacity:0.502; stroke:rgb(0,147,128);"
       id="g25">
      <path
         style="fill:none;stroke:#000000;stroke-opacity:1;fill-opacity:0.80000000999999998"
         d="M507.1071 197.5322 C484.1882 197.5322 461.4081 203.2043 440.6843 215.1691 C371.9192 254.8707 351.8359 348.8233 395.827 425.0181 C426.5605 478.2502 480.437 508.732 533.5674 508.732 C556.4864 508.732 579.2665 503.0599 599.9902 491.095 C668.7554 451.3935 688.8387 357.4409 644.8476 281.246 C614.1141 228.014 560.2375 197.5322 507.1071 197.5322 Z"
         id="path27" />
      <path
         d="M343.5407 31.0499 C297.0214 31.0499 249.8707 42.1518 206.0207 65.5613 C62.9435 141.9436 9.1875 320.4331 85.9534 464.2288 C139.1922 563.9543 241.2268 620.8027 346.4945 620.8027 C393.0138 620.8027 440.1645 609.7009 484.0145 586.2914 C627.0917 509.9091 680.8477 331.4196 604.0818 187.6239 C550.843 87.8984 448.8084 31.0499 343.5407 31.0499 Z"
         style="fill:none;stroke-width:1;stroke:#000000;stroke-opacity:1;fill-opacity:0.53333335999999998;stroke-miterlimit:10;stroke-dasharray:none"
         id="path29" />
    </g>
  </g>
</svg>
